src/standard/science/thermometer-cold.svg

<svg xmlns="http://www.w3.org/2000/svg" viewBox="0 0 36 36">
  <path d="M18.62 23.46V19a.62.62 0 0 0-1.24 0v4.46a2.62 2.62 0 1 0 1.24 0ZM18 27.38a1.38 1.38 0 0 1 0-2.75 1.38 1.38 0 0 1 0 2.75Z"/>
  <path d="M24 14.62a.62.62 0 0 0 0-1.24h-2.38v-2.76H24a.62.62 0 1 0 0-1.24h-2.38V8a3.62 3.62 0 0 0-7.24 0v13.71a5.62 5.62 0 1 0 7.24 0v-3.09H24a.62.62 0 0 0 0-1.24h-2.38v-2.76ZM22.38 26a4.38 4.38 0 1 1-7-3.53.64.64 0 0 0 .22-.43s0-14 0-14a2.38 2.38 0 0 1 4.75 0s0 14 0 14a.64.64 0 0 0 .22.43A4.42 4.42 0 0 1 22.38 26Z"/>
</svg>

<svg id="a8ee73af-b591-498b-8bf9-e110f9ea3949" data-name="Icon" xmlns="http://www.w3.org/2000/svg" viewBox="0 0 36 36">
  <g>
    <path d="M18.62,23.46V19a.62.62,0,0,0-1.24,0v4.46a2.62,2.62,0,1,0,1.24,0ZM18,27.38a1.38,1.38,0,0,1,0-2.75A1.38,1.38,0,0,1,18,27.38Z"/>
    <path d="M24,14.62a.62.62,0,0,0,0-1.24H21.62V10.62H24a.62.62,0,1,0,0-1.24H21.62V8a3.62,3.62,0,0,0-7.24,0V21.71a5.62,5.62,0,1,0,7.24,0V18.62H24a.62.62,0,0,0,0-1.24H21.62V14.62ZM22.38,26a4.38,4.38,0,1,1-7-3.53.64.64,0,0,0,.22-.43s0-14,0-14a2.38,2.38,0,0,1,4.75,0s0,14,0,14a.64.64,0,0,0,.22.43A4.42,4.42,0,0,1,22.38,26Z"/>
  </g>
</svg>
